public/cloud-icons/azure/application/app-metric.svg

<?xml version="1.0" encoding="UTF-8" standalone="no"?>
<!-- Generated by Microsoft Visio, SVG Export App Metric.svg Page-1 -->

<svg
   xmlns:dc="http://purl.org/dc/elements/1.1/"
   xmlns:cc="http://creativecommons.org/ns#"
   xmlns:rdf="http://www.w3.org/1999/02/22-rdf-syntax-ns#"
   xmlns:svg="http://www.w3.org/2000/svg"
   xmlns="http://www.w3.org/2000/svg"
   xmlns:sodipodi="http://sodipodi.sourceforge.net/DTD/sodipodi-0.dtd"
   xmlns:inkscape="http://www.inkscape.org/namespaces/inkscape"
   width="53.8619"
   height="56.697628"
   viewBox="0 0 53.8619 56.697628"
   xml:space="preserve"
   class="st5"
   version="1.1"
   id="svg39"
   sodipodi:docname="App Metric.svg"
   style="font-size:12px;overflow:visible;color-interpolation-filters:sRGB;fill:none;fill-rule:evenodd;stroke-linecap:square;stroke-miterlimit:3"
   inkscape:version="0.92.5 (2060ec1f9f, 2020-04-08)"><metadata
   id="metadata45"><rdf:RDF><cc:Work
       rdf:about=""><dc:format>image/svg+xml</dc:format><dc:type
         rdf:resource="http://purl.org/dc/dcmitype/StillImage" /></cc:Work></rdf:RDF></metadata><defs
   id="defs43" /><sodipodi:namedview
   pagecolor="#ffffff"
   bordercolor="#666666"
   borderopacity="1"
   objecttolerance="10"
   gridtolerance="10"
   guidetolerance="10"
   inkscape:pageopacity="0"
   inkscape:pageshadow="2"
   inkscape:window-width="640"
   inkscape:window-height="480"
   id="namedview41"
   showgrid="false"
   inkscape:zoom="1.8924055"
   inkscape:cx="26.929001"
   inkscape:cy="28.339828"
   inkscape:window-x="0"
   inkscape:window-y="0"
   inkscape:window-maximized="0"
   inkscape:current-layer="svg39" />
	<style
   type="text/css"
   id="style2">
	<![CDATA[
		.st1 {fill:#b796f9;stroke:none;stroke-linecap:butt;stroke-width:34}
		.st2 {fill:#0078d4;stroke:none;stroke-linecap:butt;stroke-width:34}
		.st3 {fill:#005ba1;stroke:none;stroke-linecap:butt;stroke-width:34}
		.st4 {fill:#5ea0ef;stroke:none;stroke-linecap:butt;stroke-width:34}
		.st5 {fill:none;fill-rule:evenodd;font-size:12px;overflow:visible;stroke-linecap:square;stroke-miterlimit:3}
	]]>
	</style>

	<g
   id="g37"
   transform="translate(-34,-33.9967)">
		<title
   id="title4">Page-1</title>
		<g
   id="group15963-1"
   transform="translate(34,-34.0157)">
			<title
   id="title6">App Metric.15963</title>
			<g
   id="group15964-2">
				<title
   id="title8">Sheet.15964</title>
				<g
   id="shape15965-3"
   transform="translate(2.1893,-23.6476)">
					<title
   id="title10">Sheet.15965</title>
					<path
   d="M 45.38,91.66 30.97,117.01 15.74,101.66 0,121.78 3.72,124.64 16.16,108.74 32,124.71 49.48,93.96 Z"
   class="st1"
   id="path12"
   inkscape:connector-curvature="0"
   style="fill:#b796f9;stroke:none;stroke-width:34;stroke-linecap:butt" />
				</g>
				<g
   id="shape15966-5"
   transform="translate(14.8518)">
					<title
   id="title15">Sheet.15966</title>
					<path
   d="m 0,123.7 a 1.02242,1.01048 -180 0 0 1.02,1.01 H 8.28 A 1.02242,1.01048 -180 0 0 9.31,123.7 V 98.65 A 1.02242,1.01048 -180 0 0 8.28,97.64 H 1.02 A 1.02242,1.01048 -180 0 0 0,98.65 Z"
   class="st2"
   id="path17"
   inkscape:connector-curvature="0"
   style="fill:#0078d4;stroke:none;stroke-width:34;stroke-linecap:butt" />
				</g>
				<g
   id="shape15967-7"
   transform="translate(29.7001)">
					<title
   id="title20">Sheet.15967</title>
					<path
   d="m 0,123.7 a 1.02242,1.01048 -180 0 0 1.02,1.01 H 8.28 A 1.02242,1.01048 -180 0 0 9.31,123.7 V 108.02 A 1.02242,1.01048 -180 0 0 8.28,107.01 H 1.02 A 1.02242,1.01048 -180 0 0 0,108.02 Z"
   class="st3"
   id="path22"
   inkscape:connector-curvature="0"
   style="fill:#005ba1;stroke:none;stroke-width:34;stroke-linecap:butt" />
				</g>
				<g
   id="shape15968-9"
   transform="translate(44.5519)">
					<title
   id="title25">Sheet.15968</title>
					<path
   d="m 0,123.7 a 1.02242,1.01048 -180 0 0 1.02,1.01 H 8.28 A 1.02242,1.01048 -180 0 0 9.31,123.7 V 89.59 A 1.02242,1.01048 -180 0 0 8.28,88.58 H 1.02 A 1.02242,1.01048 -180 0 0 0,89.59 Z"
   class="st3"
   id="path27"
   inkscape:connector-curvature="0"
   style="fill:#005ba1;stroke:none;stroke-width:34;stroke-linecap:butt" />
				</g>
				<g
   id="shape15969-11">
					<title
   id="title30">Sheet.15969</title>
					<path
   d="m 0,123.7 a 1.02242,1.01048 -180 0 0 1.02,1.01 H 8.28 A 1.02242,1.01048 -180 0 0 9.31,123.7 V 108.02 A 1.02242,1.01048 -180 0 0 8.28,107.01 H 1.02 A 1.02242,1.01048 -180 0 0 0,108.02 Z"
   class="st4"
   id="path32"
   inkscape:connector-curvature="0"
   style="fill:#5ea0ef;stroke:none;stroke-width:34;stroke-linecap:butt" />
				</g>
			</g>
		</g>
	</g>
</svg>

<svg xmlns="http://www.w3.org/2000/svg" xml:space="preserve" width="53.862" height="56.698" style="font-size:12px;overflow:visible;color-interpolation-filters:sRGB;fill-rule:evenodd;stroke-linecap:square;stroke-miterlimit:3" viewBox="0 0 53.862 56.698"><g transform="translate(-34 -33.997)"><title>Page-1</title><g transform="translate(34 -34.016)"><title>App Metric.15963</title><title>Sheet.15964</title><g transform="translate(2.19 -23.648)"><title>Sheet.15965</title><path d="m45.38 91.66-14.41 25.35-15.23-15.35L0 121.78l3.72 2.86 12.44-15.9L32 124.71l17.48-30.75Z" style="fill:#b796f9;stroke:none;stroke-width:34;stroke-linecap:butt"/></g><g transform="translate(14.852)"><title>Sheet.15966</title><path d="M0 123.7a1.022 1.01-180 0 0 1.02 1.01h7.26a1.022 1.01-180 0 0 1.03-1.01V98.65a1.022 1.01-180 0 0-1.03-1.01H1.02A1.022 1.01-180 0 0 0 98.65Z" style="fill:#0078d4;stroke:none;stroke-width:34;stroke-linecap:butt"/></g><g transform="translate(29.7)"><title>Sheet.15967</title><path d="M0 123.7a1.022 1.01-180 0 0 1.02 1.01h7.26a1.022 1.01-180 0 0 1.03-1.01v-15.68a1.022 1.01-180 0 0-1.03-1.01H1.02A1.022 1.01-180 0 0 0 108.02Z" style="fill:#005ba1;stroke:none;stroke-width:34;stroke-linecap:butt"/></g><g transform="translate(44.552)"><title>Sheet.15968</title><path d="M0 123.7a1.022 1.01-180 0 0 1.02 1.01h7.26a1.022 1.01-180 0 0 1.03-1.01V89.59a1.022 1.01-180 0 0-1.03-1.01H1.02A1.022 1.01-180 0 0 0 89.59Z" style="fill:#005ba1;stroke:none;stroke-width:34;stroke-linecap:butt"/></g><title>Sheet.15969</title><path d="M0 123.7a1.022 1.01-180 0 0 1.02 1.01h7.26a1.022 1.01-180 0 0 1.03-1.01v-15.68a1.022 1.01-180 0 0-1.03-1.01H1.02A1.022 1.01-180 0 0 0 108.02Z" style="fill:#5ea0ef;stroke:none;stroke-width:34;stroke-linecap:butt"/></g></g></svg>
